X:1
T:Nigra sum sed formosa
T:Giovanni Girolamo Kapsperger
T:Source : Libro primo di mottetti passeggiati a una voce---Roma---1612. Racolta del Sig.Francesco de Nobile Editor : André Vierendeels (31/10/15).
T:Notes  : Original clefs : C1, F4 Editorial accidentals above the staff Note values have been halved in 3-beat measures   
T:Nigra sum sed formosa
C:Giovanni Girolamo Kapsperger
%%score 1 2
L:1/8
Q:1/4=80
M:4/4
K:F
V:1 treble nm="Soprano" snm="S"
V:2 bass nm="BC" snm="BC"
V:1
 c6 B2 | A4 GA/B/ AG/F/ | G8 | F8 | c4 c4 | A4- A/ D/E/F/ G/A/B/c/ |"^b" d G/A/ B/A/c/B/ A4 | G8 | %8
w: Ni- gra|sum sed _ _ for- * *|mo-|sa,|ni- gra|sum _ sed _ _ _ _ _ _|_ for- * * * * * mo-|sa,|
 B6 A2 | A3 B/c/ d3 G | G6 G2 | F4 A3 A | c6 G G/A/ | B2 A/A/B/c/ F/G/A/B/ G/G/G/F/ | G4 G4 | %15
w: fi- li-|ae _ _ _ Hie-|ru- sa-|lem, i- de-|o di- le- *||* xit|
 FG A/G/A/F/ GA B/A/B/G/ | A/B/c/B/ A/F/G/A/ B/F/G/A/ B/c/d/e/ | f/d/_e/f/ g/f/e/d/ cB c2 | B6 B2 | %19
w: me _ _ _ _ _ _ _ _ _ _ _|_ _ _ _ _ _ _ _ _ _ _ _ _ _ _ _||Rex et|
 d2 f/e/f/d/ _e3 e | d4 G2 A2 | =B3 A B2 c2- | c2 =B2 c4 | G/A/B/c/ d/_e/d/e/ d/e/d/e/ d/e/f | %24
w: in- tro- * * * du- xit|me in cu-|bi- cu- lum su-|* * um|et _ _ _ _ _ _ _ _ _ _ _ _ _ _|
 d3 B A4 | G8 | c8 | F4 G4 | A3 B G4 | F8 | f8 | B4 c4 | d3 _e c4 | B8 | %34
w: di- xit mi-|hi:|Sur-|ge a-|mi- ca me-|a,|sur-|ge a-|mi- ca me-|a|
 d/_e/f/g/ e/f/d/e/ c/d/B/c/ d/G/A/B/ | A/B/c/B/ c/d/_e/d/ c/d/c/B/ c/B/A/G/ | %36
w: et _ _ _ _ _ _ _ _ _ _ _ _ _ _ _|_ _ _ _ _ _ _ _ _ _ _ _ _ _ _ _|
 ^F/G/A/D/ E/F/G/F/ G/F/G/F/ G/F/E/F/ | G8 |[M:3/4] G2 A2 =B2 | c3 c c2 | B4 c2 | d3 d d2 | %42
w: ve- * * * * * * * * * * * * * * *|ni,|iam hi- ems|tran- si- it,|im- ber|a- bi- it|
[M:4/4] G2 A/B/c/d/ _e3 f | d8 | c8 | d4 c2 d2 | B2 c2 d4 | c4 f g/f/ _e/d/c/B/ | c8 | B8 | %50
w: et _ _ _ _ _ re-|ces-|sit,|flo- res ap-|pa- ru- e-|runt in ter- * ra _ _ _|no-|stra,|
 d4 A3 A | =Bc c4 B2 | c4 BcdG | ABcB A4 | G8 | z2 d/c/d/B/ c2 d/B/c/d/ | _e6 f2 | %57
w: tem- pus pu-|ta- ti- o- nis|_ ad- * * *|ve- * * * *|nit,|flo- * * * res ap- * * *|pa- ru-|
 d/_e/f/e/ d/c/B/A/ G/A/B/c/ d/e/f/B/ | c6 f2 | f/_e/e/d/ d/c/c/B/ B3 c/d/ | _e3 d c4 | B8 | %62
w: e- * * * * * * * * * * * * * * *|runt in|ter- * * * * * * * * * *|* ra no-|stra,|
 d4 _e4 | c3 B c2 d2 | Bc/d/ G/A/B/A/ c/B/A/G/ c/B/A/G/ | A4 B4 | %66
w: tem- *|pus pu- ta- ti-|o- * * * * * * * * * * * * * *|nis ad-|
 D/E/F/G/ A/B/c/d/ _e/d/c/B/ A/G/F/_E/ | D/_E/F/E/ D/E/F/D/ E/F/G/F/ E/F/G/D/ | %68
w: ve- * * * * * * * * * * * * * * *||
 _E/F/G/A/ B/c/d/_e/ d/c/d/c/ B/c/d/G/ | A/B/c/d/ c/B/c/B/ A/B/c/d/ F/G/A/B/ | %70
w: ||
 c2 F/G/A/B/ AA/A/ A/A/G/F/ | G8 | !fermata!F8 |] %73
w: ||nit.|
V:2
 F,4 E,4 | F,4 E,2 A,,2 | C,8 | F,,8 | F,4 E,4 | F,8 | =B,,2 C,2 D,4 | G,,8 | _E,4 D,4 | %9
 D,4 =B,,4 | C,8 | F,,8 | _E,8 | D,8 | C,8 | D,4 _E,4 | F,4 B,,4 | F,,8 | B,,8 | B,,4 G,,2 A,,2 | %20
 B,,4 _E,2 F,2 | G,3 F, G,2 _E,2 | D,4 C,4 | C,8 | D,8 | G,,8 | %26
 F,,/G,,/A,,/B,,/ C,/D,/E,/C,/ F,/E,/D,/C,/ F,,/C,/B,,/A,,/ | D,4 E,4 | F,2 D,2 C,4 | F,,8 | %30
 B,,/C,/D,/E,/ F,/G,/A,/F,/ B,/A,/G,/F,/ B,,/F,/_E,/D,/ | G,4 A,4 | B,2 G,2 F,4 | B,,8 | B,,8 | %35
 C,8 | D,8 | G,,8 |[M:3/4] G,2 F,2 D,2 | C,3 C, C,2 | _E,3 D, C,2 | B,,3 B,, B,,2 |[M:4/4] C,8 | %43
 G,,8 | C,8 | B,4 A,2 B,2 | G,2 A,2 B,4 | F,4 D,2 _E,2 | F,8 | B,,8 | B,,4 D,4 | G,2 _E,2 D,4 | %52
 C,4 G,,4 | D,8 | G,,8 | B,4 A,2 B,2 | G,4 A,4 | B,8 | F,8 | D,4 _E,4 | _E,4 F,4 | B,,8 | %62
 B,,4 G,,4 | A,,3 G,, A,,2 B,,2 | G,,8 | D,4 G,,4 | F,,8- | F,,8- | F,,8 | F,,8- | F,,8 | C,8 | %72
 !fermata!F,,8 |] %73

